X:1
T:Title
%%score { 1 | ( 2 3 ) }
L:1/8
Q:1/4=120
M:4/4
K:A
V:1 treble nm="Grand Piano, Grand Piano"
V:2 treble 
V:3 treble 
V:1
 A8 | c2 c2 B2 [GB]2 | [Ac]6 [Ac]2 | B2 [Ac]2 [ce]2 [B^d]2 | [ce]6 .[Be]2 | [Ac]2 d2 e2 d2 | %6
 [ce]4 [Be]4 | A6[K:bass] A,,2 | A,2 A,2 A,2[K:treble] A2 | e2 e2 e2 ed | c2 c2 c2 A2 | %11
 [Be]2 e2 e2 .[de]2 | [ce]2 cB c2 [Bd]2 | [ce]4 [B^d]4 | [Be]6 [Be]2 | [Ac][Bd]c[Bd] [ce]2 [Bd]2 | %16
 [Ace]4 [Be]4 | [Ac]6 z2 | z4 z2 A2 | e2 e2 e2 ed | c2 c2 c2 A2 | [Be]2 e2 e2 .[de]2 | %22
 [ce]2 cB c2 [Bd]2 | [ce]4 [B^d]4 | [Be]6 [Be]2 | [Ac][Bd]c[Bd] [ce]2 [Bd]2 | [Ace]4 [Be]4 | %27
 [Ac]8 |] %28
V:2
 A,8 | [A,A]2 [A,A]2[K:bass] E,2 E,2 | A,,6 A,2 | E,2 F,G, A,2 B,2 | E,6 z[K:treble] d | %5
 A,2 B,2 [Cc]2 B,2 | A,4 E,4 | A,,6 z2 | z4 z2 A,2 | E,2 E,2 E,2 C,2 | F,2 F,2 F,2 A,2 | %11
 z2[K:treble] B2 B2 z d | z4 A2 G,2 | A,4 B,4 | E,6 E,2 | A,G,F,G, E,2 F,G, | A,4 E,4 | A,,6 A,,2 | %18
 A,2 A,2 A,2 A,2 | E,2 E,2 E,2 C,2 | F,2 F,2 F,2 A,2 | z2[K:treble] B2 B2 z d | z4 A2 G,2 | %23
 A,4 B,4 | E,6 E,2 | A,G,F,G, E,2 F,G, | A,4 E,4 | A,,8 |] %28
V:3
 x8 | x4[K:bass] x4 | x8 | x8 | z4 z2 E,2[K:treble] | x8 | x8 | x8 | x8 | x8 | x8 | %11
 E,6[K:treble] E,2 | A,,6 z2 | x8 | x8 | x8 | x8 | x8 | x8 | x8 | x8 | E,6[K:treble] E,2 | %22
 A,,6 z2 | x8 | x8 | x8 | x8 | x8 |] %28

